X: 06040
T: KEVIN'S JIG
C: Bob McQuillen 6 Nov 82
B: Bob's Note Book 6 #40
%R: jig
Z: 2021 John Chambers <jc:trillian.mit.edu>
M: 6/8
L: 1/8
K: D
B \
| A2d dcd | B2d dcd | A2d f2a | f2a gfe |\
| A2d dcd | B2d edB | A2d dfa | gfe d2 :|
|: e \
| f2a dfa | gfe d2B | A2d cde | f3 ede |\
| f2a dfa | gfe dcB | A2d faf | e3 d2 :|
%%begintext align
%% This tune is for Kevin Delay of
%% Bennington, N.H. I want him to be
%% _happy_ -- perhaps this will help -
%% with love from MAC
%% o--*--o
%%endtext

%%sep 1 1 500

%%sep 1 1 500

